X: 6428
T: Castle, The
R: jig
M: 6/8
K: Adorian
|:c3 ~B3|AGE DB,G,|~A,3 EDB,|DEG A2B|
~c3 ~B3|AGE DB,G,|~A,3 ~E3|DB,G, A,2B:|
|:cBA aec|Aca ecA|GBd gdB|GBg edB|
cBc dcd|ede gab|age dBG|E2G A2B:|

